assets/icons/certificate_2_fill.svg

<svg width="20" height="20" viewBox="0 0 20 20" fill="none" xmlns="http://www.w3.org/2000/svg">
<path d="M17.7588 3.49121C17.5244 3.25679 17.2065 3.125 16.875 3.125H3.125C2.79348 3.125 2.47563 3.25679 2.24121 3.49121C2.00679 3.72563 1.875 4.04348 1.875 4.375V14.375C1.875 14.7065 2.00679 15.0244 2.24121 15.2588C2.47563 15.4932 2.79348 15.625 3.125 15.625H11.8838V13.2764C11.0538 12.4758 10.5291 11.4106 10.4004 10.2646C10.2718 9.11849 10.5476 7.96276 11.1797 6.99805C11.8117 6.03354 12.7604 5.31928 13.8623 4.97949C14.9644 4.63976 16.1513 4.6954 17.2168 5.13672C17.3851 5.19899 17.732 5.36735 18.125 5.6416V4.375C18.125 4.04348 17.9932 3.72563 17.7588 3.49121Z" fill="currentColor"/>
<path d="M5.625 7.5H9.375C9.54076 7.5 9.69973 7.56585 9.81694 7.68306C9.93415 7.80027 10 7.95924 10 8.125C10 8.29076 9.93415 8.44973 9.81694 8.56694C9.69973 8.68415 9.54076 8.75 9.375 8.75H5.625C5.45924 8.75 5.30027 8.68415 5.18306 8.56694C5.06585 8.44973 5 8.29076 5 8.125C5 7.95924 5.06585 7.80027 5.18306 7.68306C5.30027 7.56585 5.45924 7.5 5.625 7.5Z" fill="white"/>
<path d="M5.625 10.0028H9.375C9.54076 10.0028 9.69973 10.0687 9.81694 10.1859C9.93415 10.3031 10 10.4621 10 10.6278C10 10.7936 9.93415 10.9525 9.81694 11.0698C9.69973 11.187 9.54076 11.2528 9.375 11.2528H5.625C5.45924 11.2528 5.30027 11.187 5.18306 11.0698C5.06585 10.9525 5 10.7936 5 10.6278C5 10.4621 5.06585 10.3031 5.18306 10.1859C5.30027 10.0687 5.45924 10.0028 5.625 10.0028Z" fill="white"/>
<path d="M14.3235 5.80999C15.2278 5.53126 16.2013 5.57674 17.0755 5.93889C17.2835 6.01589 17.8248 6.28786 18.3255 6.76116C18.7205 7.13944 19.0345 7.5941 19.2493 8.0971C19.4641 8.60019 19.5755 9.14186 19.5755 9.68889C19.5755 10.2358 19.464 10.7767 19.2493 11.2797C19.0346 11.7827 18.7205 12.2373 18.3255 12.6157V17.5014C18.3264 17.6115 18.2979 17.7201 18.2435 17.8158C18.189 17.9115 18.11 17.9909 18.0149 18.0463C17.9198 18.1018 17.8116 18.132 17.7015 18.1323C17.5915 18.1324 17.4833 18.1033 17.388 18.0483L15.513 16.975L13.638 18.0483C13.5427 18.1033 13.4345 18.1324 13.3245 18.1323C13.2143 18.132 13.1052 18.1018 13.0101 18.0463C12.9152 17.9909 12.8369 17.9113 12.7825 17.8158C12.7281 17.7201 12.6995 17.6115 12.7005 17.5014V12.6157C12.0195 11.9588 11.5892 11.0851 11.4837 10.1449C11.3782 9.20463 11.6038 8.25673 12.1224 7.46526C12.6408 6.67395 13.4195 6.08877 14.3235 5.80999ZM17.0794 13.4389C16.5845 13.6457 16.0533 13.7523 15.5169 13.7524C14.9805 13.7524 14.4493 13.6456 13.9544 13.4389V16.4242L15.2044 15.7094C15.2987 15.6555 15.4053 15.6265 15.514 15.6264C15.6228 15.6264 15.7301 15.6554 15.8245 15.7094L17.0745 16.4242L17.0794 13.4389ZM16.5931 7.09026C16.0792 6.8774 15.5136 6.82161 14.9681 6.9301C14.4225 7.03863 13.921 7.3063 13.5276 7.69964C13.1343 8.09297 12.8666 8.59449 12.7581 9.14007C12.6496 9.68561 12.7054 10.2512 12.9183 10.7651C13.1311 11.2789 13.4919 11.7178 13.9544 12.0268C14.4169 12.3358 14.9606 12.5014 15.5169 12.5014C15.8861 12.5014 16.2519 12.4288 16.5931 12.2875C16.9343 12.1462 17.244 11.9383 17.5052 11.6772C17.7663 11.416 17.9742 11.1063 18.1155 10.7651C18.2568 10.4239 18.3294 10.0581 18.3294 9.68889C18.3294 9.13263 18.1638 8.58891 17.8548 8.12639C17.5458 7.66391 17.1069 7.30313 16.5931 7.09026Z" fill="currentColor"/>
</svg>

<svg xmlns="http://www.w3.org/2000/svg" width="20" height="20" fill="none" viewBox="0 0 20 20"><path fill="currentColor" d="M17.759 3.491a1.25 1.25 0 0 0-.884-.366H3.125a1.25 1.25 0 0 0-1.25 1.25v10a1.25 1.25 0 0 0 1.25 1.25h8.759v-2.349a4.953 4.953 0 0 1 5.333-8.14c.168.063.515.231.908.506V4.375c0-.332-.132-.65-.366-.884"/><path fill="#fff" d="M5.625 7.5h3.75a.625.625 0 0 1 0 1.25h-3.75a.625.625 0 0 1 0-1.25m0 2.503h3.75a.625.625 0 0 1 0 1.25h-3.75a.625.625 0 1 1 0-1.25"/><path fill="currentColor" d="M14.324 5.81a4.06 4.06 0 0 1 2.752.129c.207.077.749.349 1.25.822a4.054 4.054 0 0 1 0 5.855V17.5a.627.627 0 0 1-.938.547l-1.875-1.073-1.875 1.073a.626.626 0 0 1-.937-.547v-4.885a4.062 4.062 0 0 1 1.622-6.806m2.755 7.629a4.06 4.06 0 0 1-3.125 0v2.985l1.25-.715a.63.63 0 0 1 .62 0l1.25.715zm-.486-6.349a2.813 2.813 0 1 0-2.153 5.198 2.813 2.813 0 0 0 2.153-5.198"/></svg>
